outputs/icons/action/ios_share_sharp.svg

<svg xmlns="http://www.w3.org/2000/svg" width="1200" height="1200" fill="none"><g fill="#000" clip-path="url(#a)"><path d="M650 250v550H550V250H400L600 50l200 200z"/><path d="M750 400h250v750H200V400h250v100H300v550h600V500H750z"/></g><defs><clipPath id="a"><path fill="#fff" d="M0 0h1200v1200H0z"/></clipPath></defs></svg>

<svg width="1200" height="1200" viewBox="0 0 1200 1200" fill="none" xmlns="http://www.w3.org/2000/svg"><g clip-path="url(#clip0_122_378)"><path fill-rule="evenodd" d="M650 250V800H550V250H400L600 50L800 250H650ZM750 400H1000V1150H200V400H450V500H300V1050H900V500H750V400Z" fill="#1D1E23"/></g><defs><clipPath id="clip0_122_378"><path width="24" fill="white" d="M0 0H1200V1200H0V0z"/></clipPath></defs></svg>
